svgs/sharp-regular/toilets-portable.svg

<svg xmlns="http://www.w3.org/2000/svg" viewBox="0 0 576 512"><!--! Font Awesome Pro 6.6.0 by @fontawesome - https://fontawesome.com License - https://fontawesome.com/license (Commercial License) Copyright 2024 Fonticons, Inc. --><path d="M0 0L24 0 232 0l24 0 0 24 0 464 0 24-48 0 0-24 0-8L48 480l0 8 0 24L0 512l0-24L0 24 0 0zM208 320l-48 0 0-96 48 0 0-80L48 144l0 288 160 0 0-112zm0-224l0-48L48 48l0 48 160 0zM320 0l24 0L552 0l24 0 0 24 0 464 0 24-48 0 0-24 0-8-160 0 0 8 0 24-48 0 0-24 0-464 0-24zM528 320l-48 0 0-96 48 0 0-80-160 0 0 288 160 0 0-112zm0-224l0-48L368 48l0 48 160 0z"/></svg>

<svg xmlns="http://www.w3.org/2000/svg" viewBox="0 0 576 512"><!--! Font Awesome Pro 6.5.2 by @fontawesome - https://fontawesome.com License - https://fontawesome.com/license (Commercial License) Copyright 2024 Fonticons, Inc. --><path d="M0 0H24 232h24V24 488v24H208V488v-8H48v8 24H0V488 24 0zM208 320H160V224h48V144H48V432H208V320zm0-224V48H48V96H208zM320 0h24H552h24V24 488v24H528V488v-8H368v8 24H320V488 24 0zM528 320H480V224h48V144H368V432H528V320zm0-224V48H368V96H528z"/></svg>
